public/img/clients/microsoft.svg

<svg xmlns="http://www.w3.org/2000/svg" focusable="false" role="img" viewBox="0 0 200 100" fill="currentColor">
  <path fill-rule="evenodd" d="M20 33h16.355v16.355H20V33zm18.025 0H54.38c0 5.452.002 10.904 0 16.355H38.026c-.002-5.45 0-10.903 0-16.355h-.001zm129.463 6.232c1.508-.982 3.456-1.073 5.156-.605.014 1.01 0 2.02.006 3.03-.807-.355-1.757-.586-2.607-.238-.674.267-1.074.958-1.18 1.65-.126.877-.044 1.766-.065 2.648 1.725.004 3.45 0 5.175.002.012-1.12-.014-2.24.014-3.36 1.173-.335 2.333-.71 3.5-1.06.01 1.475-.013 2.95.013 4.428 1.166-.017 2.333-.004 3.5-.008v2.872c-1.17-.048-2.343-.013-3.514-.017.005 1.652 0 3.303.002 4.955.02.915-.05 1.834.058 2.746.065.537.26 1.132.764 1.41.844.473 1.915.267 2.69-.252v2.9c-1.01.44-2.14.573-3.234.496-1.037-.077-2.112-.454-2.79-1.28-.78-.93-.982-2.194-.998-3.374-.008-2.535 0-5.07-.003-7.604-1.726 0-3.452-.002-5.177 0-.002 3.978 0 7.955 0 11.933h-3.538c0-3.977-.005-7.952 0-11.93-.82-.014-1.64.005-2.46-.01.003-.945.007-1.89-.002-2.835.816-.02 1.633-.01 2.452-.005.06-1.256-.132-2.547.243-3.77.318-1.104 1.023-2.1 1.995-2.723v.001zm-75.733.206c.713-.108 1.485.136 1.957.694.554.61.656 1.583.246 2.297-.454.805-1.47 1.18-2.355.985-.918-.165-1.683-1.018-1.642-1.97-.026-1.002.812-1.895 1.795-2.007l-.001.001zm-27.109.438h5.144c1.6 4.066 3.214 8.128 4.817 12.194.41 1.016.793 2.045 1.222 3.054 2.06-5.08 4.15-10.15 6.193-15.236 1.65-.027 3.3-.006 4.95-.01-.004 6.875-.002 13.75 0 20.626-1.192-.003-2.38.01-3.57-.007.012-5.074-.002-10.148.005-15.222a8.68 8.68 0 00-.022-.684c-.07.107-.13.217-.185.33-2.044 5.195-4.127 10.373-6.16 15.572-.846.03-1.694.002-2.542.016-2.11-5.194-4.19-10.4-6.29-15.597a3.7 3.7 0 00-.177-.313c-.042 2.223-.006 4.448-.018 6.67 0 3.08-.002 6.158 0 9.237-1.122.003-2.244 0-3.366 0 0-6.876-.002-13.752 0-20.628l-.001-.002zm36.844 5.83c1.706-.486 3.547-.466 5.254.016.35.098.692.235 1.008.42-.02 1.127 0 2.255-.01 3.382-1.14-.87-2.588-1.423-4.038-1.24-1.15.104-2.25.7-2.938 1.63-.885 1.155-1.09 2.686-.937 4.097.113 1.105.57 2.208 1.428 2.94.892.792 2.143 1.073 3.31.985 1.153-.133 2.24-.62 3.174-1.303.01 1.068-.005 2.136.007 3.204-1.447.86-3.18 1.082-4.835 1-1.694-.09-3.383-.73-4.608-1.92-1.332-1.285-2.055-3.116-2.14-4.95-.087-1.906.3-3.895 1.398-5.488.92-1.358 2.357-2.32 3.924-2.772l.003-.001zm38.638-.226c1.636-.287 3.348-.075 4.896.51.002 1.085 0 2.17 0 3.252a6.233 6.233 0 00-3.714-1.097c-.66.026-1.388.306-1.69.934-.24.62-.073 1.436.513 1.81 1.003.67 2.2.955 3.24 1.556.817.46 1.61 1.06 2.025 1.927.78 1.623.45 3.767-.92 4.977-1.308 1.222-3.19 1.56-4.922 1.495-1.23-.08-2.466-.322-3.597-.825.004-1.14-.008-2.28.005-3.42.95.69 2.048 1.186 3.21 1.386.808.132 1.687.137 2.44-.224.72-.36.85-1.383.423-2.01-.4-.483-.99-.75-1.544-1.01-1.043-.47-2.138-.86-3.053-1.563-.643-.503-1.13-1.21-1.32-2.008-.283-1.176-.195-2.5.49-3.53.78-1.196 2.136-1.914 3.518-2.16zm-24.466.467c.976-.587 2.217-.636 3.283-.277-.005 1.18 0 2.36-.003 3.54a3.756 3.756 0 00-2.39-.563c-1.005.114-1.8.885-2.213 1.77-.45.935-.534 1.994-.505 3.018v7.07h-3.487c-.003-4.926.004-9.852-.003-14.777 1.164-.015 2.328-.01 3.492-.003-.005.846 0 1.69-.003 2.538.378-.92.94-1.814 1.828-2.316h.001zm-25.38-.222c1.173-.005 2.347-.017 3.52.006-.014 4.925 0 9.85-.006 14.775h-3.512c-.003-4.927 0-9.853-.002-14.78v-.001zm43.326 3.447c-.614-1.366-1.722-2.506-3.09-3.123-1.575-.718-3.366-.814-5.063-.598-1.783.225-3.52 1.064-4.65 2.485-1.034 1.27-1.537 2.9-1.633 4.518-.143 1.906.176 3.93 1.295 5.52.954 1.374 2.46 2.318 4.087 2.666a10.13 10.13 0 004.14.005c1.592-.327 3.077-1.207 4.062-2.506.963-1.224 1.446-2.766 1.555-4.305.112-1.577-.047-3.21-.702-4.663l-.001.001zm-3.417 6.785c-.337.76-.956 1.403-1.737 1.708-.913.35-1.94.37-2.883.126-.96-.25-1.774-.944-2.217-1.828-.57-1.137-.655-2.452-.537-3.7.107-1.134.502-2.302 1.366-3.084.627-.586 1.482-.872 2.327-.92 1.062-.07 2.194.232 2.958 1.005.818.804 1.134 1.97 1.22 3.082.064 1.217.014 2.485-.497 3.612v-.001zm31.745-6.357c-.544-1.47-1.633-2.738-3.038-3.44-1.61-.813-3.485-.932-5.25-.713-1.424.182-2.822.723-3.91 1.677-1.325 1.142-2.103 2.822-2.332 4.54-.218 1.718-.144 3.527.556 5.135a6.559 6.559 0 003.593 3.486c1.575.62 3.325.69 4.983.42 1.694-.28 3.3-1.17 4.348-2.54 1.12-1.418 1.603-3.25 1.6-5.037.025-1.196-.124-2.408-.55-3.53v.002zm-3.19 5.01c-.136.78-.405 1.555-.915 2.17-.512.62-1.277.997-2.065 1.113-.847.126-1.74.065-2.53-.275-.855-.362-1.518-1.102-1.866-1.952-.42-1.014-.504-2.137-.42-3.22.08-1.05.377-2.13 1.07-2.945.634-.76 1.604-1.183 2.582-1.238 1-.07 2.066.16 2.834.836.71.587 1.1 1.468 1.28 2.354.203 1.04.2 2.115.03 3.16v-.003zM20 51.024c5.452.002 10.904 0 16.355.002V67.38H20V51.024zm18.026.002c5.45-.002 10.903 0 16.355 0V67.38H38.026V51.026z" clip-rule="evenodd"/>
</svg>

<svg width="200" height="100" viewBox="0 0 200 100" fill="none" xmlns="http://www.w3.org/2000/svg">
<path fill-rule="evenodd" clip-rule="evenodd" d="M20 33H36.355V49.355H20V33ZM38.025 33H54.38C54.38 38.452 54.382 43.904 54.38 49.355H38.026C38.024 43.905 38.026 38.452 38.026 33H38.025ZM167.488 39.232C168.996 38.25 170.944 38.159 172.644 38.627C172.658 39.637 172.644 40.647 172.65 41.657C171.843 41.302 170.893 41.071 170.043 41.419C169.369 41.686 168.969 42.377 168.863 43.069C168.737 43.946 168.819 44.835 168.798 45.717C170.523 45.721 172.248 45.717 173.973 45.719C173.985 44.599 173.959 43.479 173.987 42.359C175.16 42.024 176.32 41.649 177.487 41.299C177.497 42.774 177.474 44.249 177.5 45.727C178.666 45.71 179.833 45.723 181 45.719V48.591C179.83 48.543 178.657 48.578 177.486 48.574C177.491 50.226 177.486 51.877 177.488 53.529C177.508 54.444 177.438 55.363 177.546 56.275C177.611 56.812 177.806 57.407 178.31 57.685C179.154 58.158 180.225 57.952 181 57.433V60.333C179.99 60.773 178.86 60.906 177.766 60.829C176.729 60.752 175.654 60.375 174.976 59.549C174.196 58.619 173.994 57.355 173.978 56.175C173.97 53.64 173.978 51.105 173.975 48.571C172.249 48.571 170.523 48.569 168.798 48.571C168.796 52.549 168.798 56.526 168.798 60.504H165.26C165.26 56.527 165.255 52.552 165.26 48.574C164.44 48.56 163.62 48.579 162.8 48.564C162.803 47.619 162.807 46.674 162.798 45.729C163.614 45.709 164.431 45.719 165.25 45.724C165.31 44.468 165.118 43.177 165.493 41.954C165.811 40.85 166.516 39.854 167.488 39.231V39.232ZM91.755 39.438C92.468 39.33 93.24 39.574 93.712 40.132C94.266 40.742 94.368 41.715 93.958 42.429C93.504 43.234 92.488 43.609 91.603 43.414C90.685 43.249 89.92 42.396 89.961 41.444C89.935 40.442 90.773 39.549 91.756 39.437L91.755 39.438ZM64.646 39.876H69.79C71.39 43.942 73.004 48.004 74.607 52.07C75.017 53.086 75.4 54.115 75.829 55.124C77.889 50.044 79.979 44.974 82.022 39.888C83.672 39.861 85.322 39.882 86.972 39.878C86.968 46.753 86.97 53.628 86.972 60.504C85.78 60.501 84.592 60.514 83.402 60.497C83.414 55.423 83.4 50.349 83.407 45.275C83.409 45.047 83.401 44.819 83.385 44.591C83.315 44.698 83.255 44.808 83.2 44.921C81.156 50.116 79.073 55.294 77.04 60.493C76.194 60.523 75.346 60.495 74.498 60.509C72.388 55.315 70.308 50.109 68.208 44.912C68.154 44.805 68.095 44.7 68.031 44.599C67.989 46.822 68.025 49.047 68.013 51.269C68.013 54.349 68.011 57.427 68.013 60.506C66.891 60.509 65.769 60.506 64.647 60.506C64.647 53.63 64.645 46.754 64.647 39.878L64.646 39.876ZM101.49 45.706C103.196 45.22 105.037 45.24 106.744 45.722C107.094 45.82 107.436 45.957 107.752 46.142C107.732 47.269 107.752 48.397 107.742 49.524C106.602 48.654 105.154 48.101 103.704 48.284C102.554 48.388 101.454 48.984 100.766 49.914C99.881 51.069 99.676 52.6 99.829 54.011C99.942 55.116 100.399 56.219 101.257 56.951C102.149 57.743 103.4 58.024 104.567 57.936C105.72 57.803 106.807 57.316 107.741 56.633C107.751 57.701 107.736 58.769 107.748 59.837C106.301 60.697 104.568 60.919 102.913 60.837C101.219 60.747 99.53 60.107 98.305 58.917C96.973 57.632 96.25 55.801 96.165 53.967C96.078 52.061 96.465 50.072 97.563 48.479C98.483 47.121 99.92 46.159 101.487 45.707L101.49 45.706ZM140.128 45.48C141.764 45.193 143.476 45.405 145.024 45.99C145.026 47.075 145.024 48.16 145.024 49.242C143.944 48.499 142.622 48.099 141.31 48.145C140.65 48.171 139.922 48.451 139.62 49.079C139.38 49.699 139.547 50.515 140.133 50.889C141.136 51.559 142.333 51.844 143.373 52.445C144.19 52.905 144.983 53.505 145.398 54.372C146.178 55.995 145.848 58.139 144.478 59.349C143.17 60.571 141.288 60.909 139.556 60.844C138.326 60.764 137.09 60.522 135.959 60.019C135.963 58.879 135.951 57.739 135.964 56.599C136.914 57.289 138.012 57.785 139.174 57.985C139.982 58.117 140.861 58.122 141.614 57.761C142.334 57.401 142.464 56.378 142.037 55.751C141.637 55.268 141.047 55.001 140.493 54.741C139.45 54.271 138.355 53.881 137.44 53.178C136.797 52.675 136.31 51.968 136.12 51.17C135.837 49.994 135.925 48.67 136.61 47.64C137.39 46.444 138.746 45.726 140.128 45.48ZM115.662 45.947C116.638 45.36 117.879 45.311 118.945 45.67C118.94 46.85 118.945 48.03 118.942 49.21C118.244 48.757 117.374 48.564 116.552 48.647C115.547 48.761 114.752 49.532 114.339 50.417C113.889 51.352 113.805 52.411 113.834 53.435V60.505H110.347C110.344 55.579 110.351 50.653 110.344 45.728C111.508 45.713 112.672 45.718 113.836 45.725C113.831 46.571 113.836 47.415 113.833 48.263C114.211 47.343 114.773 46.449 115.661 45.947H115.662ZM90.282 45.725C91.455 45.72 92.629 45.708 93.802 45.731C93.788 50.656 93.802 55.581 93.796 60.506H90.284C90.281 55.579 90.284 50.653 90.282 45.726V45.725ZM133.608 49.172C132.994 47.806 131.886 46.666 130.518 46.049C128.943 45.331 127.152 45.235 125.455 45.451C123.672 45.676 121.935 46.515 120.805 47.936C119.771 49.206 119.268 50.836 119.172 52.454C119.029 54.36 119.348 56.384 120.467 57.974C121.421 59.348 122.927 60.292 124.554 60.64C125.914 60.927 127.336 60.928 128.694 60.645C130.286 60.318 131.771 59.438 132.756 58.139C133.719 56.915 134.202 55.373 134.311 53.834C134.423 52.257 134.264 50.624 133.609 49.171L133.608 49.172ZM130.191 55.957C129.854 56.717 129.235 57.36 128.454 57.665C127.541 58.015 126.514 58.035 125.571 57.791C124.611 57.541 123.797 56.847 123.354 55.963C122.784 54.826 122.699 53.511 122.817 52.263C122.924 51.129 123.319 49.961 124.183 49.179C124.81 48.593 125.665 48.307 126.51 48.259C127.572 48.189 128.704 48.491 129.468 49.264C130.286 50.068 130.602 51.234 130.688 52.346C130.752 53.563 130.702 54.831 130.191 55.958V55.957ZM161.936 49.6C161.392 48.13 160.303 46.862 158.898 46.16C157.288 45.347 155.413 45.228 153.648 45.447C152.224 45.629 150.826 46.17 149.738 47.124C148.413 48.266 147.635 49.946 147.406 51.664C147.188 53.382 147.262 55.191 147.962 56.799C148.634 58.376 149.96 59.657 151.555 60.285C153.13 60.905 154.88 60.975 156.538 60.705C158.232 60.425 159.838 59.535 160.886 58.165C162.006 56.747 162.489 54.915 162.486 53.128C162.511 51.932 162.362 50.72 161.936 49.598V49.6ZM158.746 54.61C158.61 55.39 158.341 56.165 157.831 56.78C157.319 57.4 156.554 57.777 155.766 57.893C154.919 58.019 154.026 57.958 153.236 57.618C152.381 57.256 151.718 56.516 151.37 55.666C150.95 54.652 150.866 53.529 150.95 52.446C151.03 51.396 151.327 50.316 152.02 49.501C152.654 48.741 153.624 48.318 154.602 48.263C155.602 48.193 156.668 48.423 157.436 49.099C158.146 49.686 158.536 50.567 158.716 51.453C158.919 52.493 158.916 53.568 158.746 54.613V54.61ZM20 51.024C25.452 51.026 30.904 51.024 36.355 51.026V67.38H20V51.025V51.024ZM38.026 51.026C43.476 51.024 48.929 51.026 54.381 51.026V67.38H38.026V51.027V51.026Z" fill="black"/>
</svg>
